images/icons/monopod.svg

<svg width="87" height="117" viewBox="0 0 87 117" fill="none" xmlns="http://www.w3.org/2000/svg">
<path d="M82.821 4.011H3.33003C1.56903 4.011 0.142029 5.438 0.142029 7.199V53.612C0.142029 55.375 1.56903 56.801 3.33003 56.801H82.822C84.584 56.801 86.011 55.374 86.011 53.612V7.199C86.011 5.438 84.583 4.011 82.821 4.011ZM8.39203 37.236H8.16603C6.40403 37.236 4.97703 35.807 4.97703 34.047V26.764C4.97703 25.003 6.40403 23.576 8.16603 23.576H8.39203V37.236ZM69.623 52.408H13.341V8.402H69.623V52.408ZM78.4 34.552C76.111 34.552 74.254 32.697 74.254 30.405C74.254 28.113 76.11 26.258 78.4 26.258C80.691 26.258 82.548 28.113 82.548 30.405C82.548 32.697 80.691 34.552 78.4 34.552Z" fill="#363636"/>
<path d="M54.654 0H31.497V2.758H54.654V0Z" fill="#363636"/>
<path d="M46.608 64.861V61.888H54.654V59.13H31.498V61.888H39.543V97.134C37.404 98.072 35.908 100.206 35.908 102.693V117H50.243V102.693C50.243 100.207 48.748 98.072 46.607 97.136V69.146H51.403L56.454 70.359V63.648L51.403 64.861H46.608Z" fill="#363636"/>
</svg>

<svg width="87" height="117" viewBox="0 0 87 117" fill="none" xmlns="http://www.w3.org/2000/svg"><path d="M82.82 4.01H3.33A3.19 3.19 0 0 0 .14 7.2V53.6a3.19 3.19 0 0 0 3.19 3.2h79.5A3.19 3.19 0 0 0 86 53.6V7.2A3.19 3.19 0 0 0 82.82 4ZM8.4 37.24h-.22a3.19 3.19 0 0 1-3.2-3.2v-7.28a3.19 3.19 0 0 1 3.2-3.18h.22v13.66ZM69.62 52.4H13.34v-44h56.28v44Zm8.78-17.86a4.15 4.15 0 1 1 0-8.29 4.15 4.15 0 0 1 0 8.3ZM54.65 0H31.5v2.76h23.15V0ZM46.6 64.86V61.9h8.05v-2.76H31.5v2.76h8.04v35.24a6.07 6.07 0 0 0-3.63 5.56V117h14.33v-14.3c0-2.5-1.5-4.63-3.63-5.56v-28h4.8l5.04 1.22v-6.71l-5.05 1.21h-4.8Z" fill="#363636"/></svg>
